TrafficJam2023/images/main-page/trend-down.svg

<svg width="52" height="50" viewBox="0 0 52 50" fill="none" xmlns="http://www.w3.org/2000/svg">
<g filter="url(#filter0_bdddiii_201_44)">
<path d="M25.5883 28.2984C25.6342 28.3606 25.6955 28.4114 25.7671 28.4465C25.8388 28.4817 25.9184 28.5 25.9993 28.5C26.0802 28.5 26.1599 28.4817 26.2315 28.4465C26.3031 28.4114 26.3645 28.3606 26.4104 28.2984L30.9107 22.2322C30.9628 22.1622 30.9933 22.0802 30.999 21.9952C31.0047 21.9102 30.9853 21.8253 30.943 21.7498C30.9006 21.6744 30.8369 21.6112 30.7587 21.5671C30.6806 21.5231 30.591 21.4999 30.4997 21.5H21.499C21.4079 21.5004 21.3186 21.5239 21.2408 21.568C21.163 21.6122 21.0995 21.6753 21.0572 21.7506C21.0149 21.8259 20.9955 21.9105 21.0009 21.9953C21.0063 22.0802 21.0364 22.1621 21.0879 22.2322L25.5883 28.2984Z" fill="#000210" fill-opacity="0.5" shape-rendering="crispEdges"/>
<path d="M25.5883 28.2984C25.6342 28.3606 25.6955 28.4114 25.7671 28.4465C25.8388 28.4817 25.9184 28.5 25.9993 28.5C26.0802 28.5 26.1599 28.4817 26.2315 28.4465C26.3031 28.4114 26.3645 28.3606 26.4104 28.2984L30.9107 22.2322C30.9628 22.1622 30.9933 22.0802 30.999 21.9952C31.0047 21.9102 30.9853 21.8253 30.943 21.7498C30.9006 21.6744 30.8369 21.6112 30.7587 21.5671C30.6806 21.5231 30.591 21.4999 30.4997 21.5H21.499C21.4079 21.5004 21.3186 21.5239 21.2408 21.568C21.163 21.6122 21.0995 21.6753 21.0572 21.7506C21.0149 21.8259 20.9955 21.9105 21.0009 21.9953C21.0063 22.0802 21.0364 22.1621 21.0879 22.2322L25.5883 28.2984Z" stroke="#FCFDFD" stroke-width="2" shape-rendering="crispEdges"/>
</g>
<defs>
<filter id="filter0_bdddiii_201_44" x="0" y="0.5" width="52" height="49" filterUnits="userSpaceOnUse" color-interpolation-filters="sRGB">
<feFlood flood-opacity="0" result="BackgroundImageFix"/>
<feGaussianBlur in="BackgroundImageFix" stdDeviation="5.5"/>
<feComposite in2="SourceAlpha" operator="in" result="effect1_backgroundBlur_201_44"/>
<feColorMatrix in="SourceAlpha" type="matrix" values="0 0 0 0 0 0 0 0 0 0 0 0 0 0 0 0 0 0 127 0" result="hardAlpha"/>
<feOffset/>
<feGaussianBlur stdDeviation="10"/>
<feComposite in2="hardAlpha" operator="out"/>
<feColorMatrix type="matrix" values="0 0 0 0 1 0 0 0 0 0.341176 0 0 0 0 0.341176 0 0 0 1 0"/>
<feBlend mode="normal" in2="effect1_backgroundBlur_201_44" result="effect2_dropShadow_201_44"/>
<feColorMatrix in="SourceAlpha" type="matrix" values="0 0 0 0 0 0 0 0 0 0 0 0 0 0 0 0 0 0 127 0" result="hardAlpha"/>
<feOffset/>
<feGaussianBlur stdDeviation="10"/>
<feComposite in2="hardAlpha" operator="out"/>
<feColorMatrix type="matrix" values="0 0 0 0 1 0 0 0 0 0.341176 0 0 0 0 0.341176 0 0 0 1 0"/>
<feBlend mode="normal" in2="effect2_dropShadow_201_44" result="effect3_dropShadow_201_44"/>
<feColorMatrix in="SourceAlpha" type="matrix" values="0 0 0 0 0 0 0 0 0 0 0 0 0 0 0 0 0 0 127 0" result="hardAlpha"/>
<feOffset/>
<feGaussianBlur stdDeviation="3.5"/>
<feComposite in2="hardAlpha" operator="out"/>
<feColorMatrix type="matrix" values="0 0 0 0 1 0 0 0 0 1 0 0 0 0 1 0 0 0 1 0"/>
<feBlend mode="normal" in2="effect3_dropShadow_201_44" result="effect4_dropShadow_201_44"/>
<feBlend mode="normal" in="SourceGraphic" in2="effect4_dropShadow_201_44" result="shape"/>
<feColorMatrix in="SourceAlpha" type="matrix" values="0 0 0 0 0 0 0 0 0 0 0 0 0 0 0 0 0 0 127 0" result="hardAlpha"/>
<feOffset/>
<feGaussianBlur stdDeviation="10"/>
<feComposite in2="hardAlpha" operator="arithmetic" k2="-1" k3="1"/>
<feColorMatrix type="matrix" values="0 0 0 0 1 0 0 0 0 0.341176 0 0 0 0 0.341176 0 0 0 1 0"/>
<feBlend mode="normal" in2="shape" result="effect5_innerShadow_201_44"/>
<feColorMatrix in="SourceAlpha" type="matrix" values="0 0 0 0 0 0 0 0 0 0 0 0 0 0 0 0 0 0 127 0" result="hardAlpha"/>
<feOffset/>
<feGaussianBlur stdDeviation="10"/>
<feComposite in2="hardAlpha" operator="arithmetic" k2="-1" k3="1"/>
<feColorMatrix type="matrix" values="0 0 0 0 1 0 0 0 0 0.341176 0 0 0 0 0.341176 0 0 0 1 0"/>
<feBlend mode="normal" in2="effect5_innerShadow_201_44" result="effect6_innerShadow_201_44"/>
<feColorMatrix in="SourceAlpha" type="matrix" values="0 0 0 0 0 0 0 0 0 0 0 0 0 0 0 0 0 0 127 0" result="hardAlpha"/>
<feOffset/>
<feGaussianBlur stdDeviation="3.5"/>
<feComposite in2="hardAlpha" operator="arithmetic" k2="-1" k3="1"/>
<feColorMatrix type="matrix" values="0 0 0 0 1 0 0 0 0 1 0 0 0 0 1 0 0 0 1 0"/>
<feBlend mode="normal" in2="effect6_innerShadow_201_44" result="effect7_innerShadow_201_44"/>
</filter>
</defs>
</svg>

<svg xmlns="http://www.w3.org/2000/svg" width="52" height="50" fill="none" viewBox="0 0 52 50"><g filter="url(#a)" shape-rendering="crispEdges"><path fill="#000210" fill-opacity="0.5" d="M25.588 28.298a.49.49 0 0 0 .18.149.527.527 0 0 0 .642-.149l4.5-6.066a.447.447 0 0 0 .033-.482.482.482 0 0 0-.184-.183.527.527 0 0 0-.26-.067h-9a.53.53 0 0 0-.258.068.483.483 0 0 0-.184.183.441.441 0 0 0 .03.481l4.501 6.066Z"/><path stroke="#FCFDFD" stroke-width="2" d="M25.588 28.298a.49.49 0 0 0 .18.149.527.527 0 0 0 .642-.149l4.5-6.066a.447.447 0 0 0 .033-.482.482.482 0 0 0-.184-.183.527.527 0 0 0-.26-.067h-9a.53.53 0 0 0-.258.068.483.483 0 0 0-.184.183.441.441 0 0 0 .03.481l4.501 6.066Z"/></g><defs><filter id="a" width="52" height="49" x="0" y="0.5" color-interpolation-filters="sRGB" filterUnits="userSpaceOnUse"><feFlood flood-opacity="0" result="BackgroundImageFix"/><feGaussianBlur in="BackgroundImageFix" stdDeviation="5.5"/><feComposite in2="SourceAlpha" operator="in" result="effect1_backgroundBlur_201_44"/><feColorMatrix in="SourceAlpha" result="hardAlpha" values="0 0 0 0 0 0 0 0 0 0 0 0 0 0 0 0 0 0 127 0"/><feOffset/><feGaussianBlur stdDeviation="10"/><feComposite in2="hardAlpha" operator="out"/><feColorMatrix values="0 0 0 0 1 0 0 0 0 0.341176 0 0 0 0 0.341176 0 0 0 1 0"/><feBlend in2="effect1_backgroundBlur_201_44" result="effect2_dropShadow_201_44"/><feColorMatrix in="SourceAlpha" result="hardAlpha" values="0 0 0 0 0 0 0 0 0 0 0 0 0 0 0 0 0 0 127 0"/><feOffset/><feGaussianBlur stdDeviation="10"/><feComposite in2="hardAlpha" operator="out"/><feColorMatrix values="0 0 0 0 1 0 0 0 0 0.341176 0 0 0 0 0.341176 0 0 0 1 0"/><feBlend in2="effect2_dropShadow_201_44" result="effect3_dropShadow_201_44"/><feColorMatrix in="SourceAlpha" result="hardAlpha" values="0 0 0 0 0 0 0 0 0 0 0 0 0 0 0 0 0 0 127 0"/><feOffset/><feGaussianBlur stdDeviation="3.5"/><feComposite in2="hardAlpha" operator="out"/><feColorMatrix values="0 0 0 0 1 0 0 0 0 1 0 0 0 0 1 0 0 0 1 0"/><feBlend in2="effect3_dropShadow_201_44" result="effect4_dropShadow_201_44"/><feBlend in="SourceGraphic" in2="effect4_dropShadow_201_44" result="shape"/><feColorMatrix in="SourceAlpha" result="hardAlpha" values="0 0 0 0 0 0 0 0 0 0 0 0 0 0 0 0 0 0 127 0"/><feOffset/><feGaussianBlur stdDeviation="10"/><feComposite in2="hardAlpha" k2="-1" k3="1" operator="arithmetic"/><feColorMatrix values="0 0 0 0 1 0 0 0 0 0.341176 0 0 0 0 0.341176 0 0 0 1 0"/><feBlend in2="shape" result="effect5_innerShadow_201_44"/><feColorMatrix in="SourceAlpha" result="hardAlpha" values="0 0 0 0 0 0 0 0 0 0 0 0 0 0 0 0 0 0 127 0"/><feOffset/><feGaussianBlur stdDeviation="10"/><feComposite in2="hardAlpha" k2="-1" k3="1" operator="arithmetic"/><feColorMatrix values="0 0 0 0 1 0 0 0 0 0.341176 0 0 0 0 0.341176 0 0 0 1 0"/><feBlend in2="effect5_innerShadow_201_44" result="effect6_innerShadow_201_44"/><feColorMatrix in="SourceAlpha" result="hardAlpha" values="0 0 0 0 0 0 0 0 0 0 0 0 0 0 0 0 0 0 127 0"/><feOffset/><feGaussianBlur stdDeviation="3.5"/><feComposite in2="hardAlpha" k2="-1" k3="1" operator="arithmetic"/><feColorMatrix values="0 0 0 0 1 0 0 0 0 1 0 0 0 0 1 0 0 0 1 0"/><feBlend in2="effect6_innerShadow_201_44" result="effect7_innerShadow_201_44"/></filter></defs></svg>
